svg/add.svg

<?xml version="1.0" encoding="UTF-8"?>
<svg xmlns="http://www.w3.org/2000/svg" xmlns:xlink="http://www.w3.org/1999/xlink" width="32" height="32" viewBox="0 0 32 32">
<path fill-rule="nonzero" fill="rgb(0%, 0%, 0%)" fill-opacity="1" d="M 16 1.28125 C 7.882812 1.28125 1.28125 7.882812 1.28125 16 C 1.28125 24.117188 7.882812 30.71875 16 30.71875 C 24.117188 30.71875 30.71875 24.117188 30.71875 16 C 30.71875 7.882812 24.117188 1.28125 16 1.28125 M 20.480469 16.640625 L 16.640625 16.640625 L 16.640625 20.480469 C 16.640625 20.832031 16.351562 21.121094 16 21.121094 C 15.648438 21.117188 15.367188 20.832031 15.359375 20.480469 L 15.359375 16.640625 L 11.519531 16.640625 C 11.167969 16.640625 10.878906 16.351562 10.878906 16 C 10.878906 15.648438 11.167969 15.359375 11.519531 15.359375 L 15.359375 15.359375 L 15.359375 11.519531 C 15.359375 11.167969 15.648438 10.878906 16 10.878906 C 16.351562 10.878906 16.640625 11.167969 16.640625 11.519531 L 16.640625 15.359375 L 20.480469 15.359375 C 20.832031 15.359375 21.121094 15.648438 21.121094 16 C 21.121094 16.351562 20.832031 16.640625 20.480469 16.640625 "/>
</svg>

<svg role="img" viewBox="0 0 32 32" xmlns="http://www.w3.org/2000/svg"><path d="M16 1.281C7.883 1.281 1.281 7.883 1.281 16S7.883 30.719 16 30.719 30.719 24.117 30.719 16 24.117 1.281 16 1.281m4.48 15.36h-3.84v3.84c0 .351-.288.64-.64.64a.65.65 0 0 1-.64-.64v-3.84h-3.84a.644.644 0 0 1-.641-.641c0-.352.289-.64.64-.64h3.84v-3.84c0-.352.29-.641.641-.641s.64.289.64.64v3.84h3.84c.352 0 .641.29.641.641s-.289.64-.64.64"/></svg>
